X: 4084
T: HEATHER BELLS
R: Strathspey.
%R: strathspey
B: James Kerr "Merry Melodies" v.4 p.11 #84
Z: 2016 John Chambers <jc:trillian.mit.edu>
M: C
L: 1/8
K: D
uA,2 |\
D<D F>E D2 F>G | A>FB>F A>F A<d |\
D<D F>E D2 F>G | A>BA>F E2 :: A2 |\
d<d f>e d>cB>A | B<B d>B A>GF>E |\
D<D F>A d>cd>e | f<a e>f d2-d :|

%%sep 1 1 500
%%sep 1 1 500

